src/assets/labels/remove.svg

<svg fill="none" height="24" viewBox="0 0 24 24" width="24" xmlns="http://www.w3.org/2000/svg"><g fill="#2990ff"><path d="m8 11c-.55228 0-1 .4477-1 1s.44772 1 1 1h8c.5523 0 1-.4477 1-1s-.4477-1-1-1z"/><path clip-rule="evenodd" d="m1 5c0-2.20914 1.79086-4 4-4h14c2.2091 0 4 1.79086 4 4v14c0 2.2091-1.7909 4-4 4h-14c-2.20914 0-4-1.7909-4-4zm4-2h14c1.1046 0 2 .89543 2 2v14c0 1.1046-.8954 2-2 2h-14c-1.10457 0-2-.8954-2-2v-14c0-1.10457.89543-2 2-2z" fill-rule="evenodd"/></g></svg>

<svg
  width="24"
  height="24"
  viewBox="0 0 24 24"
  fill="none"
  xmlns="http://www.w3.org/2000/svg"
>
  <path
    d="M8 11C7.44772 11 7 11.4477 7 12C7 12.5523 7.44772 13 8 13H16C16.5523 13 17 12.5523 17 12C17 11.4477 16.5523 11 16 11H8Z"
    fill="#2990ff"
  />
  <path
    fill-rule="evenodd"
    clip-rule="evenodd"
    d="M1 5C1 2.79086 2.79086 1 5 1H19C21.2091 1 23 2.79086 23 5V19C23 21.2091 21.2091 23 19 23H5C2.79086 23 1 21.2091 1 19V5ZM5 3H19C20.1046 3 21 3.89543 21 5V19C21 20.1046 20.1046 21 19 21H5C3.89543 21 3 20.1046 3 19V5C3 3.89543 3.89543 3 5 3Z"
    fill="#2990ff"
  />
</svg>
